X:4
T:Star of County Down Guitar
M:2/4
L:1/8
C:Irish
K:C
[E,,A,,E,A,CE]/ [E,,A,,E,A,CE]/ [E,,A,,E,A,CE] [E,,A,,E,A,CE] [E,,A,,E,A,CE] |
[G,,B,,D,G,B,G]/ [G,,B,,D,G,B,G]/ [G,,B,,D,G,B,G] [G,,B,,D,G,B,G] [G,,B,,D,G,B,G] |
[F,,C,F,A,CF]/ [F,,C,F,A,CF]/ [F,,C,F,A,CF] [G,,B,,D,G,B,G]/ [G,,B,,D,G,B,G]/ [G,,B,,D,G,B,G] |
[E,,A,,E,A,CE]/ [E,,A,,E,A,CE]/ [E,,A,,E,A,CE]3 |
[E,,A,,E,A,CE]/ [E,,A,,E,A,CE]/ [E,,A,,E,A,CE] [E,,A,,E,A,CE] [E,,A,,E,A,CE] |
[G,,B,,D,G,B,G]/ [G,,B,,D,G,B,G]/ [G,,B,,D,G,B,G] [G,,B,,D,G,B,G] [G,,B,,D,G,B,G] |
[F,,C,F,A,CF]/ [F,,C,F,A,CF]/ [F,,C,F,A,CF] [G,,B,,D,G,B,G]/ [G,,B,,D,G,B,G]/ [G,,B,,D,G,B,G] |
[E,,A,,E,A,CE]/ [E,,A,,E,A,CE]/ [E,,A,,E,A,CE]3 |
[E,,C,E,G,CE]/ [E,,C,E,G,CE]/ [E,,C,E,G,CE] [E,,C,E,G,CE] [E,,C,E,G,CE] |
[G,,B,,D,G,B,G]/ [G,,B,,D,G,B,G]/ [G,,B,,D,G,B,G] [G,,B,,D,G,B,G] [G,,B,,D,G,B,G] |
[E,,A,,E,A,CE]/ [E,,A,,E,A,CE]/ [E,,A,,E,A,CE] [F,,C,F,A,CF]/ [F,,C,F,A,CF]/ [F,,C,F,A,CF]|
[G,,B,,D,G,B,G] [G,,B,,D,G,B,G]3|
[E,,A,,E,A,CE]/ [E,,A,,E,A,CE]/ [E,,A,,E,A,CE] [E,,A,,E,A,CE] [E,,A,,E,A,CE] |
[G,,B,,D,G,B,G]/ [G,,B,,D,G,B,G]/ [G,,B,,D,G,B,G] [G,,B,,D,G,B,G] [G,,B,,D,G,B,G] |
[F,,C,F,A,CF]/ [F,,C,F,A,CF]/ [F,,C,F,A,CF] [G,,B,,D,G,B,G]/ [G,,B,,D,G,B,G]/ [G,,B,,D,G,B,G] |
[E,,A,,E,A,CE]/ [E,,A,,E,A,CE]/ [E,,A,,E,A,CE]3 |
[E,,C,E,G,CE]/ [E,,C,E,G,CE]/ [E,,C,E,G,CE] [E,,C,E,G,CE] [E,,C,E,G,CE] |
[G,,B,,D,G,B,G]/ [G,,B,,D,G,B,G]/ [G,,B,,D,G,B,G] [G,,B,,D,G,B,G] [G,,B,,D,G,B,G] |
[E,,A,,E,A,CE]/ [E,,A,,E,A,CE]/ [E,,A,,E,A,CE] [F,,C,F,A,CF]/ [F,,C,F,A,CF]/ [F,,C,F,A,CF]|
[G,,B,,D,G,B,G] [G,,B,,D,G,B,G]3|
[E,,A,,E,A,CE]/ [E,,A,,E,A,CE]/ [E,,A,,E,A,CE] [E,,A,,E,A,CE] [E,,A,,E,A,CE] |
[G,,B,,D,G,B,G]/ [G,,B,,D,G,B,G]/ [G,,B,,D,G,B,G] [G,,B,,D,G,B,G] [G,,B,,D,G,B,G] |
[F,,C,F,A,CF]/ [F,,C,F,A,CF]/ [F,,C,F,A,CF] [G,,B,,D,G,B,G]/ [G,,B,,D,G,B,G]/ [G,,B,,D,G,B,G] |
[E,,A,,E,A,CE]/ [E,,A,,E,A,CE]/ [E,,A,,E,A,CE]3 |
